X:344
T:Pinch of Snuff
S:Padraig O'Keeffe MS, via 'Music from Sliabh Luachra'
R:Pipe Reel
Z:Nigel Gatherer
L:1/8
M:4/4
K:D
F2 DF EFDE|F2DF EFGE|F2 DF EFDF|GEED EFGE:|
D2 FA d2 AF|D2 AG EFGE|D2 FA d2 AF|GEED EFGE|
D2 FA d2 AF|D2 AG EFGE|Addc d2 AF|GEED EFGE|]
<end>
<start>
